images/50368405.svg

<?xml version="1.0" encoding="UTF-8"?>
<svg xmlns="http://www.w3.org/2000/svg" xmlns:xlink="http://www.w3.org/1999/xlink" width="300pt" height="300pt" viewBox="0 0 300 300" version="1.1">
<defs>
<g>
<symbol overflow="visible" id="glyph0-0">
<path style="stroke:none;" d="M 0.546875 1.9375 L 0.546875 -7.75 L 6.046875 -7.75 L 6.046875 1.9375 Z M 1.171875 1.328125 L 5.4375 1.328125 L 5.4375 -7.140625 L 1.171875 -7.140625 Z M 1.171875 1.328125 "/>
</symbol>
<symbol overflow="visible" id="glyph0-1">
<path style="stroke:none;" d="M 4.328125 -7.28125 C 3.546875 -7.28125 2.921875 -6.984375 2.453125 -6.390625 C 1.992188 -5.804688 1.765625 -5.007812 1.765625 -4 C 1.765625 -2.988281 1.992188 -2.1875 2.453125 -1.59375 C 2.921875 -1.007812 3.546875 -0.71875 4.328125 -0.71875 C 5.117188 -0.71875 5.742188 -1.007812 6.203125 -1.59375 C 6.660156 -2.1875 6.890625 -2.988281 6.890625 -4 C 6.890625 -5.007812 6.660156 -5.804688 6.203125 -6.390625 C 5.742188 -6.984375 5.117188 -7.28125 4.328125 -7.28125 Z M 4.328125 -8.171875 C 5.453125 -8.171875 6.351562 -7.789062 7.03125 -7.03125 C 7.707031 -6.28125 8.046875 -5.269531 8.046875 -4 C 8.046875 -2.738281 7.707031 -1.726562 7.03125 -0.96875 C 6.351562 -0.21875 5.453125 0.15625 4.328125 0.15625 C 3.203125 0.15625 2.300781 -0.21875 1.625 -0.96875 C 0.957031 -1.71875 0.625 -2.726562 0.625 -4 C 0.625 -5.269531 0.957031 -6.28125 1.625 -7.03125 C 2.300781 -7.789062 3.203125 -8.171875 4.328125 -8.171875 Z M 4.328125 -8.171875 "/>
</symbol>
<symbol overflow="visible" id="glyph0-2">
<path style="stroke:none;" d="M 1.078125 -8.015625 L 2.546875 -8.015625 L 6.09375 -1.3125 L 6.09375 -8.015625 L 7.15625 -8.015625 L 7.15625 0 L 5.6875 0 L 2.125 -6.703125 L 2.125 0 L 1.078125 0 Z M 1.078125 -8.015625 "/>
</symbol>
<symbol overflow="visible" id="glyph0-3">
<path style="stroke:none;" d="M 1.078125 -8.015625 L 2.171875 -8.015625 L 2.171875 -4.734375 L 6.109375 -4.734375 L 6.109375 -8.015625 L 7.1875 -8.015625 L 7.1875 0 L 6.109375 0 L 6.109375 -3.8125 L 2.171875 -3.8125 L 2.171875 0 L 1.078125 0 Z M 1.078125 -8.015625 "/>
</symbol>
</g>
</defs>
<g id="surface9321">
<rect x="0" y="0" width="300" height="300" style="fill:rgb(100%,100%,100%);fill-opacity:1;stroke:none;"/>
<path style="fill:none;stroke-width:1.2;stroke-linecap:butt;stroke-linejoin:miter;stroke:rgb(100%,0%,0%);stroke-opacity:1;stroke-miterlimit:10;" d="M 159.625 152.5625 L 172.765625 156.089844 "/>
<path style="fill:none;stroke-width:1.2;stroke-linecap:butt;stroke-linejoin:miter;stroke:rgb(0%,0%,0%);stroke-opacity:1;stroke-miterlimit:10;" d="M 172.765625 156.089844 L 185.90625 159.617188 "/>
<path style="fill:none;stroke-width:1.2;stroke-linecap:butt;stroke-linejoin:miter;stroke:rgb(0%,0%,0%);stroke-opacity:1;stroke-miterlimit:10;" d="M 140.375 171.796875 L 150 162.179688 "/>
<path style="fill:none;stroke-width:1.2;stroke-linecap:butt;stroke-linejoin:miter;stroke:rgb(100%,0%,0%);stroke-opacity:1;stroke-miterlimit:10;" d="M 150 162.179688 L 159.625 152.5625 "/>
<path style=" stroke:none;fill-rule:nonzero;fill:rgb(100%,100%,100%);fill-opacity:1;" d="M 155.625 146.0625 L 164.625 146.0625 L 164.625 159.0625 L 155.625 159.0625 Z M 155.625 146.0625 "/>
<g style="fill:rgb(100%,0%,0%);fill-opacity:1;">
  <use xlink:href="#glyph0-1" x="155.625" y="155.963867"/>
</g>
<path style="fill:none;stroke-width:1.2;stroke-linecap:butt;stroke-linejoin:miter;stroke:rgb(0%,0%,0%);stroke-opacity:1;stroke-miterlimit:10;" d="M 185.90625 159.617188 L 192.9375 185.902344 "/>
<path style="fill:none;stroke-width:1.2;stroke-linecap:butt;stroke-linejoin:miter;stroke:rgb(0%,0%,0%);stroke-opacity:1;stroke-miterlimit:10;" d="M 192.792969 160.589844 L 198.421875 181.621094 "/>
<path style="fill:none;stroke-width:1.2;stroke-linecap:butt;stroke-linejoin:miter;stroke:rgb(0%,0%,0%);stroke-opacity:1;stroke-miterlimit:10;" d="M 205.15625 140.382812 L 185.90625 159.617188 "/>
<path style="fill:none;stroke-width:1.2;stroke-linecap:butt;stroke-linejoin:miter;stroke:rgb(0%,0%,0%);stroke-opacity:1;stroke-miterlimit:10;" d="M 192.9375 185.902344 L 219.21875 192.957031 "/>
<path style="fill:none;stroke-width:1.2;stroke-linecap:butt;stroke-linejoin:miter;stroke:rgb(0%,0%,0%);stroke-opacity:1;stroke-miterlimit:10;" d="M 192.9375 185.902344 L 173.6875 205.136719 "/>
<path style="fill:none;stroke-width:1.2;stroke-linecap:butt;stroke-linejoin:miter;stroke:rgb(0%,0%,0%);stroke-opacity:1;stroke-miterlimit:10;" d="M 219.21875 192.957031 L 238.46875 173.722656 "/>
<path style="fill:none;stroke-width:1.2;stroke-linecap:butt;stroke-linejoin:miter;stroke:rgb(0%,0%,0%);stroke-opacity:1;stroke-miterlimit:10;" d="M 216.617188 186.503906 L 232.019531 171.117188 "/>
<path style="fill:none;stroke-width:1.2;stroke-linecap:butt;stroke-linejoin:miter;stroke:rgb(0%,0%,0%);stroke-opacity:1;stroke-miterlimit:10;" d="M 238.46875 173.722656 L 231.4375 147.4375 "/>
<path style="fill:none;stroke-width:1.2;stroke-linecap:butt;stroke-linejoin:miter;stroke:rgb(0%,0%,0%);stroke-opacity:1;stroke-miterlimit:10;" d="M 238.46875 173.722656 L 264.75 180.777344 "/>
<path style="fill:none;stroke-width:1.2;stroke-linecap:butt;stroke-linejoin:miter;stroke:rgb(0%,0%,0%);stroke-opacity:1;stroke-miterlimit:10;" d="M 231.4375 147.4375 L 205.15625 140.382812 "/>
<path style="fill:none;stroke-width:1.2;stroke-linecap:butt;stroke-linejoin:miter;stroke:rgb(0%,0%,0%);stroke-opacity:1;stroke-miterlimit:10;" d="M 227.148438 152.914062 L 206.125 147.273438 "/>
<path style="fill:none;stroke-width:1.2;stroke-linecap:butt;stroke-linejoin:miter;stroke:rgb(0%,0%,0%);stroke-opacity:1;stroke-miterlimit:10;" d="M 205.15625 140.382812 L 201.640625 127.238281 "/>
<path style="fill:none;stroke-width:1.2;stroke-linecap:butt;stroke-linejoin:miter;stroke:rgb(0%,0%,100%);stroke-opacity:1;stroke-miterlimit:10;" d="M 201.640625 127.238281 L 198.125 114.097656 "/>
<path style="fill:none;stroke-width:1.2;stroke-linecap:butt;stroke-linejoin:miter;stroke:rgb(0%,0%,100%);stroke-opacity:1;stroke-miterlimit:10;" d="M 198.125 114.097656 L 207.746094 104.480469 "/>
<path style="fill:none;stroke-width:1.2;stroke-linecap:butt;stroke-linejoin:miter;stroke:rgb(0%,0%,0%);stroke-opacity:1;stroke-miterlimit:10;" d="M 207.746094 104.480469 L 217.371094 94.863281 "/>
<path style="fill:none;stroke-width:1.2;stroke-linecap:butt;stroke-linejoin:miter;stroke:rgb(0%,0%,100%);stroke-opacity:1;stroke-miterlimit:10;" d="M 198.125 114.097656 L 184.984375 110.570312 "/>
<path style="fill:none;stroke-width:1.2;stroke-linecap:butt;stroke-linejoin:miter;stroke:rgb(0%,0%,0%);stroke-opacity:1;stroke-miterlimit:10;" d="M 184.984375 110.570312 L 171.84375 107.042969 "/>
<path style=" stroke:none;fill-rule:nonzero;fill:rgb(100%,100%,100%);fill-opacity:1;" d="M 194.125 107.597656 L 202.125 107.597656 L 202.125 120.597656 L 194.125 120.597656 Z M 194.125 107.597656 "/>
<g style="fill:rgb(0%,0%,100%);fill-opacity:1;">
  <use xlink:href="#glyph0-2" x="194.125" y="117.499023"/>
</g>
<path style="fill:none;stroke-width:1.2;stroke-linecap:butt;stroke-linejoin:miter;stroke:rgb(0%,0%,0%);stroke-opacity:1;stroke-miterlimit:10;" d="M 217.371094 94.863281 L 210.339844 68.574219 "/>
<path style="fill:none;stroke-width:1.2;stroke-linecap:butt;stroke-linejoin:miter;stroke:rgb(0%,0%,0%);stroke-opacity:1;stroke-miterlimit:10;" d="M 171.84375 107.042969 L 164.808594 80.753906 "/>
<path style="fill:none;stroke-width:1.2;stroke-linecap:butt;stroke-linejoin:miter;stroke:rgb(0%,0%,0%);stroke-opacity:1;stroke-miterlimit:10;" d="M 170.597656 205.964844 L 174.113281 219.109375 "/>
<path style="fill:none;stroke-width:1.2;stroke-linecap:butt;stroke-linejoin:miter;stroke:rgb(100%,0%,0%);stroke-opacity:1;stroke-miterlimit:10;" d="M 174.113281 219.109375 L 177.628906 232.25 "/>
<path style="fill:none;stroke-width:1.2;stroke-linecap:butt;stroke-linejoin:miter;stroke:rgb(0%,0%,0%);stroke-opacity:1;stroke-miterlimit:10;" d="M 176.78125 204.308594 L 180.296875 217.453125 "/>
<path style="fill:none;stroke-width:1.2;stroke-linecap:butt;stroke-linejoin:miter;stroke:rgb(100%,0%,0%);stroke-opacity:1;stroke-miterlimit:10;" d="M 180.296875 217.453125 L 183.8125 230.597656 "/>
<path style="fill:none;stroke-width:1.2;stroke-linecap:butt;stroke-linejoin:miter;stroke:rgb(0%,0%,0%);stroke-opacity:1;stroke-miterlimit:10;" d="M 173.6875 205.136719 L 147.40625 198.082031 "/>
<path style=" stroke:none;fill-rule:nonzero;fill:rgb(100%,100%,100%);fill-opacity:1;" d="M 176.71875 224.925781 L 185.71875 224.925781 L 185.71875 237.925781 L 176.71875 237.925781 Z M 176.71875 224.925781 "/>
<g style="fill:rgb(100%,0%,0%);fill-opacity:1;">
  <use xlink:href="#glyph0-1" x="176.71875" y="234.827148"/>
</g>
<path style="fill:none;stroke-width:1.2;stroke-linecap:butt;stroke-linejoin:miter;stroke:rgb(0%,0%,0%);stroke-opacity:1;stroke-miterlimit:10;" d="M 147.40625 198.082031 L 137.78125 207.699219 "/>
<path style="fill:none;stroke-width:1.2;stroke-linecap:butt;stroke-linejoin:miter;stroke:rgb(100%,0%,0%);stroke-opacity:1;stroke-miterlimit:10;" d="M 137.78125 207.699219 L 128.15625 217.316406 "/>
<path style="fill:none;stroke-width:1.2;stroke-linecap:butt;stroke-linejoin:miter;stroke:rgb(0%,0%,0%);stroke-opacity:1;stroke-miterlimit:10;" d="M 147.40625 198.082031 L 140.375 171.796875 "/>
<path style="fill:none;stroke-width:1.2;stroke-linecap:butt;stroke-linejoin:miter;stroke:rgb(0%,0%,0%);stroke-opacity:1;stroke-miterlimit:10;" d="M 152.890625 193.800781 L 147.265625 172.769531 "/>
<path style=" stroke:none;fill-rule:nonzero;fill:rgb(100%,100%,100%);fill-opacity:1;" d="M 111.15625 210.816406 L 128.15625 210.816406 L 128.15625 223.816406 L 111.15625 223.816406 Z M 111.15625 210.816406 "/>
<g style="fill:rgb(100%,0%,0%);fill-opacity:1;">
  <use xlink:href="#glyph0-3" x="111.15625" y="220.717773"/>
  <use xlink:href="#glyph0-1" x="119.180664" y="220.717773"/>
</g>
<path style="fill:none;stroke-width:1.2;stroke-linecap:butt;stroke-linejoin:miter;stroke:rgb(0%,0%,0%);stroke-opacity:1;stroke-miterlimit:10;" d="M 140.375 171.796875 L 114.09375 164.742188 "/>
<path style="fill:none;stroke-width:1.2;stroke-linecap:butt;stroke-linejoin:miter;stroke:rgb(0%,0%,0%);stroke-opacity:1;stroke-miterlimit:10;" d="M 114.09375 164.742188 L 107.0625 138.457031 "/>
<path style="fill:none;stroke-width:1.2;stroke-linecap:butt;stroke-linejoin:miter;stroke:rgb(0%,0%,0%);stroke-opacity:1;stroke-miterlimit:10;" d="M 107.207031 163.769531 L 101.578125 142.738281 "/>
<path style="fill:none;stroke-width:1.2;stroke-linecap:butt;stroke-linejoin:miter;stroke:rgb(0%,0%,0%);stroke-opacity:1;stroke-miterlimit:10;" d="M 94.84375 183.976562 L 114.09375 164.742188 "/>
<path style="fill:none;stroke-width:1.2;stroke-linecap:butt;stroke-linejoin:miter;stroke:rgb(0%,0%,0%);stroke-opacity:1;stroke-miterlimit:10;" d="M 107.0625 138.457031 L 80.78125 131.402344 "/>
<path style="fill:none;stroke-width:1.2;stroke-linecap:butt;stroke-linejoin:miter;stroke:rgb(0%,0%,0%);stroke-opacity:1;stroke-miterlimit:10;" d="M 80.78125 131.402344 L 77.265625 118.257812 "/>
<path style="fill:none;stroke-width:1.2;stroke-linecap:butt;stroke-linejoin:miter;stroke:rgb(100%,0%,0%);stroke-opacity:1;stroke-miterlimit:10;" d="M 77.265625 118.257812 L 73.75 105.113281 "/>
<path style="fill:none;stroke-width:1.2;stroke-linecap:butt;stroke-linejoin:miter;stroke:rgb(0%,0%,0%);stroke-opacity:1;stroke-miterlimit:10;" d="M 80.78125 131.402344 L 61.53125 150.636719 "/>
<path style="fill:none;stroke-width:1.2;stroke-linecap:butt;stroke-linejoin:miter;stroke:rgb(0%,0%,0%);stroke-opacity:1;stroke-miterlimit:10;" d="M 83.382812 137.855469 L 67.980469 153.242188 "/>
<path style=" stroke:none;fill-rule:nonzero;fill:rgb(100%,100%,100%);fill-opacity:1;" d="M 65.75 98.613281 L 82.75 98.613281 L 82.75 111.613281 L 65.75 111.613281 Z M 65.75 98.613281 "/>
<g style="fill:rgb(100%,0%,0%);fill-opacity:1;">
  <use xlink:href="#glyph0-3" x="65.75" y="108.514648"/>
  <use xlink:href="#glyph0-1" x="73.774414" y="108.514648"/>
</g>
<path style="fill:none;stroke-width:1.2;stroke-linecap:butt;stroke-linejoin:miter;stroke:rgb(0%,0%,0%);stroke-opacity:1;stroke-miterlimit:10;" d="M 61.53125 150.636719 L 48.390625 147.109375 "/>
<path style="fill:none;stroke-width:1.2;stroke-linecap:butt;stroke-linejoin:miter;stroke:rgb(100%,0%,0%);stroke-opacity:1;stroke-miterlimit:10;" d="M 48.390625 147.109375 L 35.25 143.582031 "/>
<path style="fill:none;stroke-width:1.2;stroke-linecap:butt;stroke-linejoin:miter;stroke:rgb(0%,0%,0%);stroke-opacity:1;stroke-miterlimit:10;" d="M 61.53125 150.636719 L 68.5625 176.921875 "/>
<path style=" stroke:none;fill-rule:nonzero;fill:rgb(100%,100%,100%);fill-opacity:1;" d="M 18.25 137.082031 L 35.25 137.082031 L 35.25 150.082031 L 18.25 150.082031 Z M 18.25 137.082031 "/>
<g style="fill:rgb(100%,0%,0%);fill-opacity:1;">
  <use xlink:href="#glyph0-3" x="18.25" y="146.983398"/>
  <use xlink:href="#glyph0-1" x="26.274414" y="146.983398"/>
</g>
<path style="fill:none;stroke-width:1.2;stroke-linecap:butt;stroke-linejoin:miter;stroke:rgb(0%,0%,0%);stroke-opacity:1;stroke-miterlimit:10;" d="M 68.5625 176.921875 L 94.84375 183.976562 "/>
<path style="fill:none;stroke-width:1.2;stroke-linecap:butt;stroke-linejoin:miter;stroke:rgb(0%,0%,0%);stroke-opacity:1;stroke-miterlimit:10;" d="M 72.851562 171.445312 L 93.875 177.085938 "/>
</g>
</svg>

<svg xmlns="http://www.w3.org/2000/svg" xmlns:xlink="http://www.w3.org/1999/xlink" width="300pt" height="300pt" viewBox="0 0 300 300"><defs><symbol overflow="visible"><path d="M.547 1.938V-7.75h5.5v9.688zm.625-.61h4.266v-8.47H1.171zm0 0"/></symbol><symbol overflow="visible" id="a"><path d="M4.328-7.28c-.78 0-1.406.296-1.875.89-.46.585-.687 1.382-.687 2.39 0 1.012.226 1.813.687 2.406.47.586 1.094.875 1.875.875.79 0 1.414-.288 1.875-.874.457-.593.688-1.394.688-2.406 0-1.008-.23-1.805-.687-2.39-.46-.594-1.086-.89-1.875-.89zm0-.892c1.125 0 2.024.383 2.703 1.14C7.708-6.28 8.048-5.27 8.048-4c0 1.262-.34 2.273-1.016 3.03C6.353-.22 5.454.157 4.33.157S2.3-.22 1.625-.97c-.668-.75-1-1.757-1-3.03 0-1.27.332-2.28 1-3.03.676-.76 1.578-1.142 2.703-1.142zm0 0"/></symbol><symbol overflow="visible" id="b"><path d="M1.078-8.016h1.47l3.546 6.704v-6.704h1.062V0H5.688L2.124-6.703V0H1.078zm0 0"/></symbol><symbol overflow="visible" id="c"><path d="M1.078-8.016h1.094v3.282H6.11v-3.282h1.077V0H6.11v-3.813H2.17V0H1.078zm0 0"/></symbol></defs><g><path fill="#fff" d="M0 0h300v300H0z"/><path d="M159.625 152.563l13.14 3.527" stroke-width="1.2" stroke="#f00" stroke-miterlimit="10" fill="none"/><path d="M172.766 156.09l13.14 3.527M140.375 171.797L150 162.18" stroke-width="1.2" stroke="#000" stroke-miterlimit="10" fill="none"/><path d="M150 162.18l9.625-9.618" stroke-width="1.2" stroke="#f00" stroke-miterlimit="10" fill="none"/><path d="M155.625 146.063h9v13h-9zm0 0" fill="#fff"/><use xlink:href="#a" x="155.625" y="155.964" fill="#f00"/><path d="M185.906 159.617l7.03 26.285M192.793 160.59l5.63 21.03M205.156 140.383l-19.25 19.234M192.938 185.902l26.28 7.055M192.938 185.902l-19.25 19.235M219.22 192.957l19.25-19.234M216.617 186.504l15.403-15.387M238.47 173.723l-7.032-26.286M238.47 173.723l26.28 7.054M231.438 147.438l-26.282-7.055M227.148 152.914l-21.023-5.64M205.156 140.383l-3.515-13.145" stroke-width="1.2" stroke="#000" stroke-miterlimit="10" fill="none"/><path d="M201.64 127.238l-3.515-13.14M198.125 114.098l9.62-9.618" stroke-width="1.2" stroke="#00f" stroke-miterlimit="10" fill="none"/><path d="M207.746 104.48l9.625-9.617" stroke-width="1.2" stroke="#000" stroke-miterlimit="10" fill="none"/><path d="M198.125 114.098l-13.14-3.528" stroke-width="1.2" stroke="#00f" stroke-miterlimit="10" fill="none"/><path d="M184.984 110.57l-13.14-3.527" stroke-width="1.2" stroke="#000" stroke-miterlimit="10" fill="none"/><path d="M194.125 107.598h8v13h-8zm0 0" fill="#fff"/><use xlink:href="#b" x="194.125" y="117.499" fill="#00f"/><path d="M217.37 94.863l-7.03-26.29M171.844 107.043l-7.035-26.29M170.598 205.965l3.515 13.144" stroke-width="1.2" stroke="#000" stroke-miterlimit="10" fill="none"/><path d="M174.113 219.11l3.516 13.14" stroke-width="1.2" stroke="#f00" stroke-miterlimit="10" fill="none"/><path d="M176.78 204.31l3.517 13.143" stroke-width="1.2" stroke="#000" stroke-miterlimit="10" fill="none"/><path d="M180.297 217.453l3.516 13.145" stroke-width="1.2" stroke="#f00" stroke-miterlimit="10" fill="none"/><path d="M173.688 205.137l-26.282-7.055" stroke-width="1.2" stroke="#000" stroke-miterlimit="10" fill="none"/><path d="M176.72 224.926h9v13h-9zm0 0" fill="#fff"/><use xlink:href="#a" x="176.719" y="234.827" fill="#f00"/><path d="M147.406 198.082l-9.625 9.617" stroke-width="1.2" stroke="#000" stroke-miterlimit="10" fill="none"/><path d="M137.78 207.7l-9.624 9.616" stroke-width="1.2" stroke="#f00" stroke-miterlimit="10" fill="none"/><path d="M147.406 198.082l-7.03-26.285M152.89 193.8l-5.624-21.03" stroke-width="1.2" stroke="#000" stroke-miterlimit="10" fill="none"/><path d="M111.156 210.816h17v13h-17zm0 0" fill="#fff"/><g fill="#f00"><use xlink:href="#c" x="111.156" y="220.718"/><use xlink:href="#a" x="119.181" y="220.718"/></g><path d="M140.375 171.797l-26.28-7.055M114.094 164.742l-7.03-26.285M107.207 163.77l-5.63-21.032M94.844 183.977l19.25-19.235M107.063 138.457l-26.282-7.055M80.78 131.402l-3.514-13.144" stroke-width="1.2" stroke="#000" stroke-miterlimit="10" fill="none"/><path d="M77.266 118.258l-3.516-13.145" stroke-width="1.2" stroke="#f00" stroke-miterlimit="10" fill="none"/><path d="M80.78 131.402l-19.25 19.235M83.383 137.855L67.98 153.242" stroke-width="1.2" stroke="#000" stroke-miterlimit="10" fill="none"/><path d="M65.75 98.613h17v13h-17zm0 0" fill="#fff"/><g fill="#f00"><use xlink:href="#c" x="65.75" y="108.515"/><use xlink:href="#a" x="73.774" y="108.515"/></g><path d="M61.53 150.637l-13.14-3.528" stroke-width="1.2" stroke="#000" stroke-miterlimit="10" fill="none"/><path d="M48.39 147.11l-13.14-3.528" stroke-width="1.2" stroke="#f00" stroke-miterlimit="10" fill="none"/><path d="M61.53 150.637l7.032 26.285" stroke-width="1.2" stroke="#000" stroke-miterlimit="10" fill="none"/><path d="M18.25 137.082h17v13h-17zm0 0" fill="#fff"/><g fill="#f00"><use xlink:href="#c" x="18.25" y="146.983"/><use xlink:href="#a" x="26.274" y="146.983"/></g><path d="M68.563 176.922l26.28 7.055M72.852 171.445l21.023 5.64" stroke-width="1.2" stroke="#000" stroke-miterlimit="10" fill="none"/></g></svg>
